X:1
T:Title
%%score 1 2 3
L:1/8
M:4/2
K:C
V:1 treble-8 nm="Part_1"
V:2 treble-8 nm="Part_2"
V:3 treble-8 nm="Part_3"
V:1
 z8 e8 | f6 e2 f4 e4- | e2 d2 c2 B2 A2 B2 c2 d2 | e4 d8 ^c4 | d8 A4 c4- | c2 B2 A2 G2 F4 A4 | %6
 G4 F4 E8 | D8 z8 | z16 | z16 | f8 e8 | c16 | d8 e8 | z4 A8 c4- | c2 B2 A2 G2 A4 E4 | F8 E4 G4 | %16
 F4 E2 D2 C8 | z8 z4 G4 | A8 B8 | c6 d2 e6 f2 | g4 f8 e4- | e4 d4 e8 | A8 c8 | B4 A6 G2 F2 E2 | %24
 F8 E8 | z8 A8 | G4 c8 B4- | B4 A4 B8 | e12 d2 c2 | d4 e4 A4 e4 | c4 d4 e8 | A8 c8 | %32
 B4 A6 G2 F2 E2 | F8 E8 | z16 | z16 | z16 | e12 d2 c2 | d4 e4 A4 e4 | c4 A4 B8 | A8 A4 A4 | %41
 G4 G4 c8 | c4 c4 d4 d4 | c16 | z16 | z16 | e12 d2 c2 | d4 e4 A4 e4 | c4 A4 B8 | A6 B2 c2 d2 e4 | %50
 f4 g4 e6 f2 | g4 a8 ^g4 | a8 g6 fe | d4 c6 BA G2 F2 | E4 F4 E8 | A16 |] %56
V:2
 z16 | z16 | z16 | z8 e8 | f6 e2 f4 e4- | e2 d2 c2 B2 A2 B2 c2 d2 | e4 d8 ^c4 | d8 A4 c4- | %8
 c2 B2 A2 G2 F4 A4 | G4 F4 E8 | D8 z8 | z16 | z16 | f8 e8 | c16 | d8 e8 | z4 A8 c4- | %17
 c2 B2 A2 G2 A4 E4 | F8 E4 G4 | F4 E2 D2 C8 | z8 z4 G4 | A8 B8 | c6 d2 e6 f2 | g4 f8 e4- | %24
 e4 d4 e8 | A8 c8 | B4 A6 G2 F2 E2 | F8 E8 | z8 A8 | G4 c8 B4- | B4 A4 B8 | e12 d2 c2 | %32
 d4 e4 A4 e4 | c4 d4 e8 | A8 c8 | B4 A6 G2 F2 E2 | F8 E8 | z16 | z16 | z16 | e12 d2 c2 | %41
 d4 e4 A4 e4 | c4 A4 B8 | A8 A4 A4 | G4 G4 c8 | c4 c4 d4 d4 | c16 | z16 | z16 | e12 d2 c2 | %50
 d4 e4 A4 e4 | c4 A4 B8 | A6 B2 c2 d2 e4 | f4 g4 e6 f2 | g4 a8 ^g4 | a16 |] %56
V:3
 z16 | z16 | z16 | z16 | z16 | z16 | z8 e8 | f6 e2 f4 e4- | e2 d2 c2 B2 A2 B2 c2 d2 | e4 d8 ^c4 | %10
 d8 A4 c4- | c2 B2 A2 G2 F4 A4 | G4 F4 E8 | D8 z8 | z16 | z16 | f8 e8 | c16 | d8 e8 | z4 A8 c4- | %20
 c2 B2 A2 G2 A4 E4 | F8 E4 G4 | F4 E2 D2 C8 | z8 z4 G4 | A8 B8 | c6 d2 e6 f2 | g4 f8 e4- | %27
 e4 d4 e8 | A8 c8 | B4 A6 G2 F2 E2 | F8 E8 | z8 A8 | G4 c8 B4- | B4 A4 B8 | e12 d2 c2 | %35
 d4 e4 A4 e4 | c4 d4 e8 | A8 c8 | B4 A6 G2 F2 E2 | F8 E8 | z16 | z16 | z16 | e12 d2 c2 | %44
 d4 e4 A4 e4 | c4 A4 B8 | A8 A4 A4 | G4 G4 c8 | c4 c4 d4 d4 | c16 | z16 | z16 | e12 d2 c2 | %53
 d4 e4 A4 e4 | c4 A4 B8 | A16 |] %56

